X:64
T:Jig. RDO.64
T:?
M:6/8
L:1/8
Q:3/8=120
S:Robert D. Owen MS,Indiana,1826.
R:.Jig
O:Indiana,USA
A:New Harmony
Z:vmp.Chris Partington
K:D
f|d’2a afa|b2a afa|d’2a {b}agf|ecAA2b/c’/|!
d’2a afa|{ga}b2a abc’|dgf eac|d3d2:|!
|:f/g/|afd (df)a|ged ceg|fed {e}dcd|ecAA2f/g/|!
afd dfa|ged ceg|(fa)d (eg)c|{c}d3d2(f/a/)|!
afd dfa|ged ceg|fed {e}dcd|ecAA2G|!
(FA)d (FA)d|GBd GBd|Agf eac|{c}d3D2:|

